// Reggae 5 — 260 Drum Machine Patterns p.54
$: stack(
  s("~ ~ hh ~ ~ ~ hh ~ ~ ~ hh ~ ~ ~ hh ~"),
  s("oh ~ ~ ~ oh ~ ~ ~ oh ~ ~ ~ oh ~ ~ ~"),
  s("~ ~ ~ ~ sd ~ ~ ~ ~ ~ ~ ~ sd ~ ~ ~"),
  s("~ ~ rim ~ ~ ~ rim ~ ~ ~ rim ~ ~ ~ rim ~"),
  s("bd ~ ~ ~ ~ ~ ~ ~ ~ ~ ~ ~ bd ~ ~ ~")
)
