// R&B 5 — 260 Drum Machine Patterns p.70
$: stack(
  s("hh ~ hh hh hh ~ hh ~ hh ~ hh hh hh ~ hh ~"),
  s("~ oh ~ ~ ~ oh ~ ~ ~ oh ~ ~ ~ oh ~ ~"),
  s("~ ~ ~ ~ sd ~ ~ ~ ~ ~ ~ ~ sd ~ ~ ~"),
  s("bd ~ ~ bd ~ ~ bd ~ ~ ~ bd ~ ~ bd ~ ~")
)
